packages/swarm-icons/src/icons/solid/Pulse.svg

<svg xmlns="http://www.w3.org/2000/svg" width="18" height="18" viewBox="0 0 18 18">
  <path fill="#A2A2A2" d="M7.4756176,15.4786026 L9.66488747,8.70280638 L11.6784518,14.7274638 L13.9910143,11.2137433 L15.2512196,11.2137433 C15.8035043,11.2137433 16.2512196,10.766028 16.2512196,10.2137433 C16.2512196,9.66145855 15.8035043,9.21374329 15.2512196,9.21374329 L12.9130218,9.21374329 L12.2706215,10.1898099 L9.63274692,2.29719362 L7.16990832,9.91968585 L5.87735057,7.0437855 L4.29300356,9.41149628 L2.69953338,9.41149628 C2.14724863,9.41149628 1.69953338,9.85921153 1.69953338,10.4114963 C1.69953338,10.963781 2.14724863,11.4114963 2.69953338,11.4114963 L5.36116547,11.4114963 L5.53255918,11.1553587 L7.4756176,15.4786026 Z"/>
</svg>

<svg xmlns="http://www.w3.org/2000/svg" width="18" height="18"><path fill="#A2A2A2" d="M7.476 15.479l2.189-6.776 2.013 6.024 2.313-3.513h1.26a1 1 0 000-2h-2.338l-.642.976-2.638-7.893L7.17 9.92 5.877 7.044 4.293 9.41H2.7a1 1 0 000 2H5.36l.172-.256 1.943 4.324z"/></svg>
